icons/lines/messages-two.svg

<svg xmlns="http://www.w3.org/2000/svg" width="24" height="24" viewBox="0 0 24 24" fill="none" stroke="currentColor" stroke-width="2" stroke-linecap="round" stroke-linejoin="round" >
  <path d="M18.4698 16.83L18.8598 19.99C18.9598 20.82 18.0698 21.4 17.3598 20.97L13.1698 18.48C12.7098 18.48 12.2599 18.45 11.8199 18.39C12.5599 17.52 12.9998 16.42 12.9998 15.23C12.9998 12.39 10.5398 10.09 7.49985 10.09C6.33985 10.09 5.26985 10.42 4.37985 11C4.34985 10.75 4.33984 10.5 4.33984 10.24C4.33984 5.68999 8.28985 2 13.1698 2C18.0498 2 21.9998 5.68999 21.9998 10.24C21.9998 12.94 20.6098 15.33 18.4698 16.83Z"/>
  <path d="M13 15.23C13 16.42 12.56 17.52 11.82 18.39C10.83 19.59 9.26 20.36 7.5 20.36L4.89 21.91C4.45 22.18 3.89 21.81 3.95 21.3L4.2 19.33C2.86 18.4 2 16.91 2 15.23C2 13.47 2.94 11.92 4.38 11C5.27 10.42 6.34 10.09 7.5 10.09C10.54 10.09 13 12.39 13 15.23Z"/>
  </svg>

<svg xmlns="http://www.w3.org/2000/svg" width="24" height="24" viewBox="0 0 24 24" fill="none" stroke="currentColor" stroke-width="2" stroke-linecap="round" stroke-linejoin="round">
  <path d="M13 15.23a4.86 4.86 0 0 1-1.18 3.16c-.99 1.2-2.56 1.97-4.32 1.97l-2.61 1.55a.626.626 0 0 1-.94-.61l.25-1.97C2.86 18.4 2 16.91 2 15.23c0-1.76.94-3.31 2.38-4.23a5.7 5.7 0 0 1 3.12-.91c3.04 0 5.5 2.3 5.5 5.14" />
  <path d="M18.86 19.99a1 1 0 0 1-1.5.98l-4.19-2.49a10 10 0 0 1-1.35-.09A4.86 4.86 0 0 0 13 15.23c0-2.84-2.46-5.14-5.5-5.14a5.7 5.7 0 0 0-3.12.91 6 6 0 0 1-.04-.76C4.34 5.69 8.29 2 13.17 2S22 5.69 22 10.24c0 2.7-1.39 5.09-3.53 6.59z" />
</svg>
